X: 21746
T: King Of The Clans
R: reel
M: 4/4
K: Gmajor
d2GA Bdge|dedB AGEG|DGBG dGBG|cege dcBc|
dGBd edBd|gdbg agef|g2 ge dBge|1 dBAc BGBc:|2 dBAc BGBd||
g2bg (3efg dg|edBG AGEG|DGBG dGBG|cege dcBd|
[1 g2bg edge|d2BG AGEG|DGBd gece|dBAc BGBd:|
[2 gabg abge|dBGB AGEG|DGBd gece|dBAc BGBc||

